X: 427
T: A Trip To The Cottage
R: jig
M: 6/8
K: Gmajor
dBB BGB|cAA ADD|DGG FGA|BAA ABc|
dBB BGB|cAA ADD|DGG FGA|1 BGG G2B:|2 BGG G2c||
K:C
|:cBA GFE|AGF EFG|AFD GEC|A,DC B,A,G,|cBA GFE|
AGF EFG|1 ABc BAG|AGG G2c:|2 ABc GEC|DCC C3||

